<?xml version='1.0' encoding='UTF-8'?>
<map version="1.10" tiledversion="1.11.0" orientation="orthogonal" renderorder="right-down" width="48" height="30" tilewidth="32" tileheight="32" infinite="0" nextlayerid="4" nextobjectid="8">
  <properties>
    <property name="title" value="Bosque das Lanternas" />
  </properties>
  <tileset firstgid="1" source="lume.tsx" />
  <layer id="1" name="Chao" width="48" height="30">
    <data encoding="csv">
1,1,1,1,1,1,1,1,1,1,1,1,1,1,1,1,1,1,1,1,1,1,1,1,1,1,1,1,1,1,1,1,1,1,1,1,1,1,1,1,1,1,1,1,1,1,1,1,
1,1,1,1,1,1,1,1,1,1,1,1,1,1,1,1,1,1,1,1,1,1,1,1,1,1,1,1,1,1,1,1,1,1,1,1,1,1,1,1,1,1,1,1,1,1,1,1,
1,1,1,1,1,1,1,1,1,1,1,1,1,1,1,1,1,1,1,1,1,1,1,1,1,1,1,1,1,1,1,1,1,1,1,1,1,1,1,1,1,1,1,1,1,1,1,1,
1,1,1,1,1,1,1,1,1,1,1,1,1,1,1,1,1,1,1,1,1,1,1,1,1,1,1,1,1,1,1,1,1,1,1,1,1,1,1,1,1,1,1,1,1,1,1,1,
1,1,1,1,1,1,1,1,1,1,1,1,1,1,1,1,1,1,1,1,1,1,1,1,1,1,1,1,1,1,1,1,1,1,1,1,1,1,1,1,1,1,1,1,1,1,1,1,
1,1,1,1,1,1,1,1,1,1,1,1,1,1,1,1,1,1,1,1,1,1,1,1,1,1,1,1,1,1,1,1,1,1,1,1,1,1,1,1,1,1,1,1,2,1,1,1,
1,1,1,1,1,1,1,1,1,1,1,1,1,1,1,1,1,1,1,1,1,1,1,1,1,1,1,1,1,1,1,1,1,1,1,1,1,1,1,1,1,1,1,1,2,1,1,1,
1,1,1,1,1,1,1,1,1,1,1,1,1,1,1,1,1,1,1,1,1,1,1,1,1,1,1,1,1,1,1,1,1,1,1,1,1,1,1,1,1,1,1,1,2,1,1,1,
1,1,1,1,1,1,1,1,1,1,1,1,2,1,1,1,1,1,1,1,1,1,1,1,1,1,1,1,1,1,1,1,1,1,1,1,1,1,1,1,1,1,1,1,2,1,1,1,
1,1,1,1,1,1,1,1,1,1,1,1,2,1,1,1,1,1,1,1,1,1,1,1,1,1,1,1,1,1,1,1,1,1,1,1,1,1,1,1,1,1,1,1,2,1,1,1,
1,1,1,1,1,1,1,1,1,1,1,1,2,1,1,1,1,1,1,1,1,1,1,1,1,1,1,1,1,1,1,1,1,1,1,1,1,1,1,1,1,1,1,1,2,1,1,1,
1,1,1,1,1,1,1,1,1,1,1,1,2,1,1,1,1,1,1,1,1,1,1,1,1,1,1,1,1,1,1,1,1,1,1,1,1,1,1,1,1,1,1,1,2,1,1,1,
1,1,1,1,1,1,1,1,1,1,1,1,2,1,1,1,1,1,1,1,1,1,1,1,1,1,1,1,1,1,1,1,1,1,1,1,1,1,1,1,1,1,1,1,2,1,1,1,
1,1,1,1,1,1,1,1,1,1,1,1,2,1,1,1,1,1,1,1,1,1,1,1,1,1,1,1,1,1,1,1,1,1,1,1,1,1,1,1,1,1,1,1,2,1,1,1,
1,1,1,1,1,1,1,1,1,1,1,1,2,1,1,1,1,1,1,1,1,1,1,1,1,1,1,1,1,1,1,1,1,1,1,1,1,1,1,1,1,1,1,1,2,1,1,1,
1,1,2,2,2,2,2,2,2,2,2,2,2,2,2,2,2,2,2,2,2,2,2,2,2,2,2,2,2,2,2,2,2,2,2,2,2,2,2,2,2,2,2,2,2,1,1,1,
1,1,1,1,1,1,1,1,1,1,1,1,1,1,1,1,1,1,1,1,1,1,1,1,1,1,1,1,1,1,1,1,1,1,1,1,2,1,1,1,1,1,1,1,1,1,1,1,
1,1,1,1,1,1,1,1,1,1,1,1,1,1,1,1,1,1,1,1,1,1,1,1,1,1,1,1,1,1,1,1,1,1,1,1,2,1,1,1,1,1,1,1,1,1,1,1,
1,1,1,1,1,1,1,1,1,1,1,1,1,1,1,1,1,1,1,1,1,1,1,1,1,1,1,1,1,1,1,1,1,1,1,1,2,1,1,1,1,1,1,1,1,1,1,1,
1,1,1,1,1,1,1,1,1,1,1,1,1,1,1,1,1,1,1,1,1,1,1,1,1,1,1,1,1,1,1,1,1,1,1,1,2,1,1,1,1,1,1,1,1,1,1,1,
1,1,1,1,1,1,1,1,1,1,1,1,1,1,1,1,1,1,1,1,1,1,1,1,1,1,1,1,1,1,1,1,1,1,1,1,2,1,1,1,1,1,1,1,1,1,1,1,
1,1,1,1,1,1,1,1,1,1,1,1,1,1,1,1,1,1,1,1,3,3,3,3,3,3,3,3,1,1,1,1,1,1,1,1,2,1,1,1,1,1,1,1,1,1,1,1,
1,1,1,1,1,1,1,1,1,1,1,1,1,1,1,1,1,1,1,1,3,3,3,3,3,3,3,3,1,1,1,1,1,1,1,1,1,1,1,1,1,1,1,1,1,1,1,1,
1,1,1,1,1,1,1,1,1,1,1,1,1,1,1,1,1,1,1,1,3,3,3,3,3,3,3,3,1,1,1,1,1,1,1,1,1,1,1,1,1,1,1,1,1,1,1,1,
1,1,1,1,1,1,1,1,1,1,1,1,1,1,1,1,1,1,1,1,3,3,3,3,3,3,3,3,1,1,1,1,1,1,1,1,1,1,1,1,1,1,1,1,1,1,1,1,
1,1,1,1,1,1,1,1,1,1,1,1,1,1,1,1,1,1,1,1,3,3,3,3,3,3,3,3,1,1,1,1,1,1,1,1,1,1,1,1,1,1,1,1,1,1,1,1,
1,1,1,1,1,1,1,1,1,1,1,1,1,1,1,1,1,1,1,1,3,3,3,3,3,3,3,3,1,1,1,1,1,1,1,1,1,1,1,1,1,1,1,1,1,1,1,1,
1,1,1,1,1,1,1,1,1,1,1,1,1,1,1,1,1,1,1,1,1,1,1,1,1,1,1,1,1,1,1,1,1,1,1,1,1,1,1,1,1,1,1,1,1,1,1,1,
1,1,1,1,1,1,1,1,1,1,1,1,1,1,1,1,1,1,1,1,1,1,1,1,1,1,1,1,1,1,1,1,1,1,1,1,1,1,1,1,1,1,1,1,1,1,1,1,
1,1,1,1,1,1,1,1,1,1,1,1,1,1,1,1,1,1,1,1,1,1,1,1,1,1,1,1,1,1,1,1,1,1,1,1,1,1,1,1,1,1,1,1,1,1,1,1
</data>
  </layer>
  <layer id="2" name="Detalhes" width="48" height="30">
    <data encoding="csv">
4,4,4,4,4,4,4,4,4,4,4,4,4,4,4,4,4,4,4,4,4,4,4,4,4,4,4,4,4,4,4,4,4,4,4,4,4,4,4,4,4,4,4,4,4,4,4,4,
4,0,0,0,0,0,4,0,0,0,0,0,4,0,0,0,0,0,0,4,4,4,0,0,0,9,0,0,9,4,0,0,0,0,0,0,0,0,0,0,0,0,0,0,4,0,4,4,
4,0,0,0,0,0,0,0,0,4,0,0,0,0,4,0,0,0,0,0,4,0,9,0,0,4,4,0,0,0,0,4,0,0,4,0,4,0,0,0,0,0,0,0,0,0,0,4,
4,4,0,0,0,0,4,4,0,4,0,0,0,4,4,0,4,0,0,0,0,0,9,0,0,0,0,0,0,0,0,0,0,0,0,9,0,9,0,0,0,0,0,9,0,0,0,4,
4,9,0,0,0,0,0,4,0,0,4,0,0,0,0,9,0,0,0,0,9,0,4,0,4,0,0,0,0,9,0,0,0,0,0,4,4,0,0,0,0,0,4,0,0,4,0,4,
4,0,0,0,0,4,0,0,0,0,0,0,4,0,0,0,4,0,0,0,0,0,4,0,0,4,0,0,0,0,0,4,0,0,0,0,9,0,4,0,0,0,4,0,0,0,0,4,
4,0,0,0,0,0,4,0,0,0,0,0,0,0,9,0,0,0,9,0,4,0,0,0,0,0,0,4,0,0,0,0,0,9,0,0,0,0,0,0,0,0,0,0,0,0,0,4,
4,0,0,0,0,0,4,0,4,0,4,0,0,0,0,0,0,0,0,0,0,0,0,0,0,0,0,4,0,0,0,0,0,0,0,0,0,0,0,0,0,4,4,0,0,0,0,4,
4,0,4,0,0,0,0,0,0,0,9,0,0,0,0,0,0,0,0,0,0,0,4,0,0,0,0,0,0,0,0,0,9,0,0,0,0,0,0,0,0,0,4,0,0,0,0,4,
4,4,0,0,4,0,0,0,0,0,4,4,0,9,4,0,0,0,0,0,0,0,4,0,0,0,4,0,0,0,9,0,0,0,0,0,4,0,0,0,0,9,0,4,0,0,4,4,
4,0,4,0,0,0,9,0,0,0,0,0,0,4,4,0,0,4,0,0,0,4,0,0,0,0,0,4,0,0,0,9,0,0,0,0,0,0,0,0,4,0,4,0,0,0,0,4,
4,0,4,0,0,0,4,0,0,0,0,0,0,0,0,0,0,0,0,4,0,0,0,0,0,0,0,4,0,0,0,0,0,0,0,0,9,0,0,0,0,0,0,0,0,4,4,4,
4,9,0,0,0,0,0,0,0,0,0,4,0,0,4,0,0,0,0,0,0,0,0,0,4,0,9,0,0,0,0,0,9,0,0,0,0,0,0,0,0,0,0,0,0,0,0,4,
4,0,0,0,4,0,0,0,0,0,0,0,0,4,4,0,0,0,0,0,0,0,0,0,4,0,0,4,0,0,0,4,0,4,0,0,0,4,0,0,4,4,0,0,0,4,0,4,
4,0,0,4,4,0,0,0,4,0,4,0,0,4,0,0,0,4,0,0,4,0,0,0,0,0,0,4,0,0,0,0,0,4,0,4,0,0,0,0,0,4,9,0,0,0,0,4,
4,0,0,0,0,0,0,0,0,0,0,0,0,0,0,0,0,0,0,0,0,0,0,0,0,0,0,0,0,0,0,0,0,0,0,0,0,0,0,0,0,0,0,0,0,4,0,4,
4,0,0,4,4,0,0,0,0,0,0,0,0,0,0,0,0,4,0,0,0,0,0,4,0,0,0,0,4,0,4,0,0,9,4,0,0,0,0,4,0,0,0,0,4,0,9,4,
4,0,0,0,0,0,4,0,0,0,0,0,0,4,4,0,4,0,0,4,0,0,4,0,9,0,0,9,0,0,0,4,0,0,0,0,0,0,4,0,0,0,0,0,0,0,0,4,
4,0,0,0,4,0,0,0,4,0,0,9,0,0,0,0,0,0,0,0,0,0,0,0,0,0,0,0,0,0,0,0,0,0,0,4,0,4,0,4,4,0,4,0,0,0,9,4,
4,4,0,0,9,0,0,0,0,0,4,0,4,0,4,9,9,0,0,0,4,0,0,0,0,0,0,4,0,0,0,0,0,4,9,4,0,0,0,0,0,4,0,0,0,9,0,4,
4,0,0,0,0,0,0,4,0,0,4,0,4,0,4,0,0,4,0,0,0,0,0,0,0,4,0,0,0,0,0,0,4,4,0,0,0,4,4,0,0,0,0,4,4,0,4,4,
4,0,0,0,0,4,9,0,0,0,0,0,0,0,0,4,0,0,0,0,0,0,0,0,0,0,0,0,0,0,0,9,0,0,0,0,0,0,0,0,0,9,0,0,0,0,9,4,
4,0,0,0,4,0,0,0,4,4,0,0,0,0,0,0,0,0,4,9,0,0,0,0,0,0,0,0,0,0,0,0,9,9,0,0,0,0,4,0,0,0,9,4,0,0,0,4,
4,0,0,9,0,0,4,0,0,0,0,0,0,0,0,0,0,0,0,0,0,0,0,0,0,0,0,0,0,0,0,0,0,0,0,9,0,0,0,0,4,0,0,0,0,0,0,4,
4,0,0,0,0,4,0,0,0,0,0,0,0,0,0,0,0,0,0,0,0,0,0,0,0,0,0,0,0,0,0,0,0,0,0,0,0,4,0,0,0,0,0,0,0,0,0,4,
4,4,4,9,4,0,0,0,4,0,4,0,0,0,0,0,4,0,0,0,0,0,0,0,0,0,0,0,0,0,0,0,0,0,0,0,0,0,0,9,0,0,0,0,0,0,4,4,
4,0,0,0,0,0,0,0,0,0,0,0,0,0,4,0,0,0,4,0,0,0,0,0,0,0,0,0,0,0,0,0,0,0,0,0,0,0,0,0,0,0,0,0,4,0,0,4,
4,0,4,0,0,0,4,0,4,4,0,0,0,4,4,0,0,0,4,0,0,0,0,4,4,0,0,0,4,0,4,0,0,0,0,0,0,0,0,0,4,0,4,0,0,4,4,4,
4,0,4,4,0,0,0,0,0,4,0,0,0,0,0,0,0,0,0,0,0,0,0,0,0,0,0,4,0,0,0,0,0,0,0,4,0,4,0,0,0,0,0,0,9,0,0,4,
4,4,4,4,4,4,4,4,4,4,4,4,4,4,4,4,4,4,4,4,4,4,4,4,4,4,4,4,4,4,4,4,4,4,4,4,4,4,4,4,4,4,4,4,4,4,4,4
</data>
  </layer>
  <objectgroup id="3" name="Objetos">
    <object id="1" name="volta_vila" type="portal" x="64" y="480" width="32" height="32">
      <properties>
        <property name="destination" value="vila" />
        <property name="spawn_x" value="29" />
        <property name="spawn_y" value="12" />
      </properties>
    </object>
    <object id="2" name="Caio" type="npc" x="736" y="448" width="32" height="32">
      <properties>
        <property name="dialog" value="forest" />
      </properties>
    </object>
    <object id="3" name="chave_antiga" type="chest" x="384" y="256" width="32" height="32">
      <properties>
        <property name="reward" value="key" />
        <property name="amount" value="1" />
      </properties>
    </object>
    <object id="4" name="bosque_fragmento" type="chest" x="1152" y="672" width="32" height="32">
      <properties>
        <property name="reward" value="fragment" />
        <property name="amount" value="1" />
      </properties>
    </object>
    <object id="5" name="bosque_moedas" type="chest" x="256" y="512" width="32" height="32">
      <properties>
        <property name="reward" value="gold" />
        <property name="amount" value="45" />
      </properties>
    </object>
    <object id="6" name="placa_ruinas" type="sign" x="1376" y="192" width="32" height="32">
      <properties>
        <property name="text" value="As ruínas guardam a última luz. Procure a chave no noroeste." />
      </properties>
    </object>
    <object id="7" name="entrada_ruinas" type="portal" x="1408" y="160" width="32" height="32">
      <properties>
        <property name="destination" value="ruinas" />
        <property name="spawn_x" value="3" />
        <property name="spawn_y" value="18" />
        <property name="requires" value="key" />
      </properties>
    </object>
  </objectgroup>
</map>